X: 12923
T: Fiddler Around The Fairy Tree
R: jig
M: 6/8
K: Dmajor
A|:d2c dcA|GFG AFD|F2F GFD|FGA =c2A|
d2c dcA|GFG AFD|F2F GAG|FDD D2A:|
|:FED FG A/B/|=cAd cAG|Afe dcd|ABc d2=c|
BAB d=cA|GFG A2D|F2F GAG|1 FDD D2A:|2 FDD D3||

